svg/600/outlined/nest_audio-fill.svg

<svg xmlns="http://www.w3.org/2000/svg" width="48" height="48" viewBox="0 -960 960 960"><path d="M360-100.782q-74.465 0-126.841-52.377Q180.782-205.535 180.782-280v-360q0-90.964 64.127-155.374T400-859.784h160q90.964 0 155.374 64.41T779.784-640v360q0 74.465-52.66 126.841Q674.465-100.782 600-100.782H360ZM360.5-450q12.5 0 21-9t8.5-21.5q0-12.5-8.625-21T360-510q-12 0-21 8.625T330-480q0 12 9 21t21.5 9Zm120 0q12.5 0 21-9t8.5-21.5q0-12.5-8.625-21T480-510q-12 0-21 8.625T450-480q0 12 9 21t21.5 9Zm120 0q12.5 0 21-9t8.5-21.5q0-12.5-8.625-21T600-510q-12 0-21 8.625T570-480q0 12 9 21t21.5 9Z"/></svg>

<svg xmlns="http://www.w3.org/2000/svg" width="48" height="48" viewBox="0 -960 960 960"><path d="M360-100.78q-74.46 0-126.84-52.38-52.38-52.38-52.38-126.84v-360q0-90.96 64.13-155.37 64.13-64.41 155.09-64.41h160q90.96 0 155.37 64.41 64.41 64.41 64.41 155.37v360q0 74.46-52.66 126.84-52.66 52.38-127.12 52.38H360Zm.5-349.22q12.5 0 21-9t8.5-21.5q0-12.5-8.62-21-8.63-8.5-21.38-8.5-12 0-21 8.62-9 8.63-9 21.38 0 12 9 21t21.5 9Zm120 0q12.5 0 21-9t8.5-21.5q0-12.5-8.62-21-8.63-8.5-21.38-8.5-12 0-21 8.62-9 8.63-9 21.38 0 12 9 21t21.5 9Zm120 0q12.5 0 21-9t8.5-21.5q0-12.5-8.62-21-8.63-8.5-21.38-8.5-12 0-21 8.62-9 8.63-9 21.38 0 12 9 21t21.5 9Z"/></svg>
